resources/icons/cisco/vpngateway.svg

<?xml version="1.0" encoding="UTF-8"?>
<svg xmlns="http://www.w3.org/2000/svg" xmlns:xlink="http://www.w3.org/1999/xlink" width="354pt" height="200pt" viewBox="0 0 354 200" version="1.1">
<defs>
<clipPath id="clip1">
  <path d="M 285 0 L 354 0 L 354 193.226562 L 285 193.226562 Z M 285 0 "/>
</clipPath>
</defs>
<g id="surface1">
<path style="fill-rule:nonzero;fill:rgb(1.176471%,41.176471%,59.607843%);fill-opacity:1;stroke-width:4;stroke-linecap:butt;stroke-linejoin:miter;stroke:rgb(100%,100%,100%);stroke-opacity:1;stroke-miterlimit:4;" d="M 6.087706 15.201472 L 363.427671 15.201472 L 363.427671 174.542218 L 6.087706 174.542218 Z M 6.087706 15.201472 " transform="matrix(0.836727,0,0,-0.83871,0,201.612903)"/>
<path style=" stroke:none;fill-rule:nonzero;fill:rgb(1.176471%,41.176471%,59.607843%);fill-opacity:1;" d="M 304.101562 55.226562 L 4.972656 55.226562 L 78.902344 -1.296875 L 366.460938 -1.523438 L 304.101562 55.226562 "/>
<path style="fill:none;stroke-width:4;stroke-linecap:butt;stroke-linejoin:miter;stroke:rgb(100%,100%,100%);stroke-opacity:1;stroke-miterlimit:4;" d="M 363.441676 174.53756 L 5.942983 174.53756 L 94.298759 241.930889 L 437.969395 242.201022 Z M 363.441676 174.53756 " transform="matrix(0.836727,0,0,-0.83871,0,201.612903)"/>
<path style=" stroke:none;fill-rule:nonzero;fill:rgb(1.176471%,41.176471%,59.607843%);fill-opacity:1;" d="M 366.460938 -1.523438 L 365.484375 128.546875 L 304.101562 189.21875 L 304.101562 55.222656 L 366.460938 -1.523438 "/>
<g clip-path="url(#clip1)" clip-rule="nonzero">
<path style="fill:none;stroke-width:4;stroke-linecap:butt;stroke-linejoin:miter;stroke:rgb(100%,100%,100%);stroke-opacity:1;stroke-miterlimit:4;" d="M 437.969395 242.201022 L 436.802273 87.117188 L 363.441676 14.777644 L 363.441676 174.542218 Z M 437.969395 242.201022 " transform="matrix(0.836727,0,0,-0.83871,0,201.612903)"/>
</g>
<path style="fill-rule:nonzero;fill:rgb(100%,100%,100%);fill-opacity:1;stroke-width:3.5;stroke-linecap:butt;stroke-linejoin:miter;stroke:rgb(1.176471%,41.176471%,59.607843%);stroke-opacity:1;stroke-miterlimit:4;" d="M 194.568513 112.858924 L 206.678567 112.858924 L 209.488996 110.045823 L 218.910002 110.045823 L 229.339401 117.707332 L 240.623133 117.707332 L 250.268226 107.037109 L 260.940386 107.079026 L 272.578923 117.777194 L 282.378076 117.777194 L 290.781352 108.639273 L 300.468461 108.639273 L 304.100544 115.597506 L 332.340219 98.406851 L 312.578515 81.723858 L 194.610529 81.528245 L 194.610529 77.709135 L 176.170008 77.667218 C 171.604228 77.629958 167.622009 74.928636 165.73594 70.951172 C 157.029213 57.197716 141.763262 48.017879 124.303122 48.017879 C 97.109188 47.938702 75.0786 70.089543 75.0786 97.470703 C 75.0786 124.814603 97.109188 147.039964 124.303122 147.077224 C 141.520501 147.119141 156.641728 138.204778 165.42782 124.777344 C 167.145823 120.478516 171.286771 117.469802 176.170008 117.469802 L 194.568513 117.507061 L 194.568513 112.858924 " transform="matrix(0.836727,0,0,-0.83871,0,201.612903)"/>
<path style="fill:none;stroke-width:3.5;stroke-linecap:butt;stroke-linejoin:round;stroke:rgb(1.176471%,41.176471%,59.607843%);stroke-opacity:1;stroke-miterlimit:4;" d="M 321.369276 89.739333 L 194.610529 89.539062 C 189.61058 89.539062 182.659204 88.207031 176.249372 85.477764 C 182.659204 82.818359 189.61058 81.528245 194.610529 81.528245 M 326.840742 101.299129 L 200.077327 101.108173 C 194.447132 101.108173 182.659204 102.239934 179.998167 103.287861 " transform="matrix(0.836727,0,0,-0.83871,0,201.612903)"/>
<path style=" stroke:none;fill-rule:nonzero;fill:rgb(100%,100%,100%);fill-opacity:1;" d="M 104.007812 156.886719 C 124.328125 156.851562 140.769531 140.214844 140.769531 119.730469 C 140.769531 99.257812 124.328125 82.675781 104.007812 82.710938 C 83.707031 82.746094 67.265625 99.347656 67.265625 119.863281 C 67.265625 140.335938 83.707031 156.917969 104.007812 156.886719 "/>
<path style="fill:none;stroke-width:3.5;stroke-linecap:butt;stroke-linejoin:round;stroke:rgb(1.176471%,41.176471%,59.607843%);stroke-opacity:1;stroke-miterlimit:4;" d="M 124.303122 53.327374 C 148.588589 53.369291 168.238249 73.205379 168.238249 97.629056 C 168.238249 122.038762 148.588589 141.809645 124.303122 141.767728 C 100.040998 141.725811 80.391338 121.931641 80.391338 97.470703 C 80.391338 73.060998 100.040998 53.290114 124.303122 53.327374 Z M 124.303122 53.327374 " transform="matrix(0.836727,0,0,-0.83871,0,201.612903)"/>
<path style=" stroke:none;fill-rule:nonzero;fill:rgb(100%,100%,100%);fill-opacity:1;" d="M 82.953125 129.5625 C 88.285156 129.5625 92.59375 125.199219 92.59375 119.832031 C 92.59375 114.457031 88.285156 110.101562 82.953125 110.101562 C 77.625 110.136719 73.316406 114.488281 73.316406 119.863281 C 73.316406 125.234375 77.625 129.5625 82.953125 129.5625 "/>
<path style="fill:none;stroke-width:3.5;stroke-linecap:butt;stroke-linejoin:round;stroke:rgb(1.176471%,41.176471%,59.607843%);stroke-opacity:1;stroke-miterlimit:4;" d="M 99.13998 85.90625 C 105.512464 85.90625 110.661805 91.108624 110.661805 97.507963 C 110.661805 103.916617 105.512464 109.109675 99.13998 109.109675 C 92.772164 109.067758 87.622824 103.879357 87.622824 97.470703 C 87.622824 91.066707 92.772164 85.90625 99.13998 85.90625 Z M 99.13998 85.90625 " transform="matrix(0.836727,0,0,-0.83871,0,201.612903)"/>
</g>
</svg>

<svg xmlns="http://www.w3.org/2000/svg" viewBox="0 0 55 31.25" height="31.25" width="55"><defs><clipPath id="a"><path d="M0 10v237h440V10H0z"/></clipPath></defs><g clip-path="url(#a)" transform="matrix(.13 0 0 -.13 0 31.25)"><path d="M6.09 15.2h357.34v159.34H6.09V15.2z" fill="#036998"/><path d="M6.09 15.2h357.34v159.34H6.09V15.2z" fill="none" stroke="#fff" stroke-width="4"/><path d="M363.441 174.539H5.941l88.36 67.391 343.668.269-74.528-67.66" fill="#036998"/><path d="M363.441 174.539H5.941l88.36 67.391 343.668.269-74.528-67.66z" fill="none" stroke="#fff" stroke-width="4"/><path d="M437.969 242.199l-1.168-155.082-73.36-72.34V174.54l74.528 67.66" fill="#036998"/><path d="M437.969 242.199l-1.168-155.082-73.36-72.34V174.54l74.528 67.66z" fill="none" stroke="#fff" stroke-width="4"/><path d="M194.57 112.859h12.11l2.808-2.812h9.422l10.43 7.66h11.281l9.649-10.668 10.671.039 11.637 10.699h9.801l8.402-9.14h9.688l3.633 6.961 28.238-17.192-19.762-16.68-117.969-.199v-3.82l-18.437-.039c-4.57-.04-8.551-2.738-10.434-6.719-8.707-13.75-23.976-22.93-41.437-22.93-27.192-.082-49.223 22.07-49.223 49.45 0 27.347 22.031 49.57 49.223 49.609 17.219.039 32.34-8.871 41.129-22.301 1.718-4.3 5.859-7.308 10.742-7.308l18.398.039v-4.649" fill="#fff"/><path d="M194.57 112.859h12.11l2.808-2.812h9.422l10.43 7.66h11.281l9.649-10.668 10.671.039 11.637 10.699h9.801l8.402-9.14h9.688l3.633 6.961 28.238-17.192-19.762-16.68-117.969-.199v-3.82l-18.437-.039c-4.57-.04-8.551-2.738-10.434-6.719-8.707-13.75-23.976-22.93-41.437-22.93-27.192-.082-49.223 22.07-49.223 49.45 0 27.347 22.031 49.57 49.223 49.609 17.219.039 32.34-8.871 41.129-22.301 1.718-4.3 5.859-7.308 10.742-7.308l18.398.039v-4.649" fill="none" stroke="#036998" stroke-width="3.5"/><path d="M321.371 89.738l-126.762-.199c-5 0-11.949-1.332-18.359-4.062 6.41-2.66 13.359-3.95 18.359-3.95M326.84 101.297l-126.762-.188c-5.629 0-17.418 1.129-20.078 2.18" fill="none" stroke="#036998" stroke-width="3.5" stroke-linejoin="round"/><path d="M124.301 53.328c24.289.04 43.937 19.879 43.937 44.3 0 24.411-19.648 44.181-43.937 44.142-24.262-.043-43.91-19.84-43.91-44.301 0-24.41 19.648-44.18 43.91-44.14" fill="#fff"/><path d="M124.301 53.328c24.289.04 43.937 19.879 43.937 44.3 0 24.411-19.648 44.181-43.937 44.142-24.262-.043-43.91-19.84-43.91-44.301 0-24.41 19.648-44.18 43.91-44.14z" fill="none" stroke="#036998" stroke-width="3.5" stroke-linejoin="round"/><path d="M99.14 85.906c6.372 0 11.52 5.203 11.52 11.602 0 6.41-5.148 11.601-11.52 11.601-6.37-.043-11.519-5.23-11.519-11.64 0-6.403 5.149-11.563 11.52-11.563" fill="#fff"/><path d="M99.14 85.906c6.372 0 11.52 5.203 11.52 11.602 0 6.41-5.148 11.601-11.52 11.601-6.37-.043-11.519-5.23-11.519-11.64 0-6.403 5.149-11.563 11.52-11.563z" fill="none" stroke="#036998" stroke-width="3.5" stroke-linejoin="round"/></g></svg>
